packages/ui/public/icons/messages-image-icon.svg

<svg width="40" height="40" viewBox="0 0 40 40" fill="none" xmlns="http://www.w3.org/2000/svg">
  <path opacity="0.4" d="M30 15C32.7615 15 35 12.7614 35 10C35 7.23858 32.7615 5 30 5C27.2385 5 25 7.23858 25 10C25 12.7614 27.2385 15 30 15Z" stroke="white" stroke-width="3.33333" stroke-linecap="round" stroke-linejoin="round" />
  <path d="M31.667 35H33.351C34.9697 35 35.7789 35 36.225 34.6625C36.6137 34.3685 36.8542 33.9192 36.8832 33.4327C36.9165 32.8743 36.4677 32.2008 35.5699 30.8542L30.5525 23.3282C29.8107 22.2153 29.4397 21.659 28.9722 21.4652C28.5634 21.2957 28.104 21.2957 27.6952 21.4652C27.2277 21.659 26.8569 22.2153 26.1149 23.3282L24.8745 25.1887M31.667 35L18.8595 16.5003C18.123 15.4364 17.7547 14.9044 17.2947 14.7174C16.8922 14.5538 16.4419 14.5538 16.0394 14.7174C15.5794 14.9044 15.2111 15.4364 14.4745 16.5003L4.56406 30.8155C3.62568 32.1708 3.15649 32.8487 3.18321 33.4123C3.20646 33.9032 3.44516 34.3587 3.83551 34.6572C4.28373 35 5.10801 35 6.75658 35H31.667Z" stroke="white" stroke-width="3.33333" stroke-linecap="round" stroke-linejoin="round" />
</svg>

<svg width="40" height="40" fill="none" xmlns="http://www.w3.org/2000/svg"><path opacity=".4" d="M30 15a5 5 0 1 0 0-10 5 5 0 0 0 0 10Z" stroke="#fff" stroke-width="3.333" stroke-linecap="round" stroke-linejoin="round"/><path d="M31.667 35h1.684c1.619 0 2.428 0 2.874-.337.389-.294.63-.744.658-1.23.033-.559-.415-1.232-1.313-2.579l-5.018-7.526c-.741-1.113-1.112-1.669-1.58-1.863a1.667 1.667 0 0 0-1.277 0c-.467.194-.838.75-1.58 1.863l-1.24 1.86M31.666 35 18.859 16.5c-.736-1.064-1.104-1.596-1.564-1.783a1.667 1.667 0 0 0-1.256 0c-.46.187-.828.72-1.565 1.783l-9.91 14.316c-.938 1.355-1.408 2.033-1.38 2.596.022.491.261.947.652 1.245.448.343 1.272.343 2.92.343h24.911Z" stroke="#fff" stroke-width="3.333" stroke-linecap="round" stroke-linejoin="round"/></svg>
